!!!Melodie: eigene
!!!Typ: Lied
**kern	**silbe	**silbe	**silbe	**silbe	**silbe	**silbe	**silbe	**silbe	**silbe	**silbe	**silbe	**silbe	**silbe	**silbe	**silbe	**silbe	**silbe	**silbe	**silbe	**silbe	**silbe	**silbe	**silbe	**silbe
*clefG2	*lang:DE	*lang:DE	*lang:DE	*lang:DE	*lang:DE	*lang:DE	*lang:DE	*lang:DE	*lang:DE	*lang:DE	*lang:DE	*lang:DE	*lang:DE	*lang:DE	*lang:DE	*lang:DE	*lang:DE	*lang:DE	*lang:DE	*lang:DE	*lang:DE	*lang:DE	*lang:DE	*lang:DE
*M4/4	*	*	*	*	*	*	*	*	*	*	*	*	*	*	*	*	*	*	*	*	*	*	*	*
4d	Be#	der	Dem	auf	Dein	was	Weg	dein	Und	so	Hoff'	Gott	Auf,	lass	Ihn,	und	Er	Und	Wird's	so	Wohl	mit	Mach	stärk'
=	=	=	=	=	=	=	=	=	=	=	=	=	=	=	=	=	=	=	=	=	=	=	=	=
4f	#fiehl	al#	Her#	sein	ew'#	gut	hast	Tun	ob	wird	O	wird	auf,	fah#	ihn	wird	wird	tun	a#	wird	dir,	Ruhm	End',	uns#
4e	du	#ler#	#ren	Werk	#ge	sei	du	ist	gleich	doch	du	dich	gib	#ren,	lass	sich	zwar	an	#ber	er	du	und	O	#'re
4f	dei#	#treu#	musst	musst	Treu'	o#	al#	lau#	al#	oh#	ar#	aus	dei#	was	tun	so	ei#	sei#	sich	dich	Kind	Dank#	Herr,	Füß'
4g	#ne	#'sten	du	du	und	#der	#ler#	#ter	#le	#ne	#me	der	#nem	das	und	ver#	#ne	#nem	be#	ent#	der	#ge#	mach	und
=	=	=	=	=	=	=	=	=	=	=	=	=	=	=	=	=	=	=	=	=	=	=	=	=
2a	We#	Pfle#	trau#	schau#	Gna#	scha#	#we#	Se#	Teu#	Zwei#	See#	Höh#	Schmer#	Her#	wal#	#hal#	Wei#	Tei#	#fin#	#bin#	Treu#	#schrei#	En#	Hän#
4a	#ge	#ge	#en,	#en,	#de,	#de	#gen,	#gen,	#fel	#fel	#le,	#le,	#ze	#ze	#ten,	#ten,	#le	#le,	#den,	#den,	#e,	#e	#de	#de,
4cc	und	des,	wenn	wenn	o	dem	an	dein	hier	Gott	Hoff'	da	und	be#	er	dass	mit	als	dass	da	du	den	an	und
=	=	=	=	=	=	=	=	=	=	=	=	=	=	=	=	=	=	=	=	=	=	=	=	=
4b	was	der	dir's	dein	Va#	sterb#	Mit#	Gang	wol#	nicht	und	dich	Sor#	#trübt	ist	du	sei#	hätt'	du	du's	hast	Sieg	al#	lass
4a	dein	den	soll	Werk	#ter,	#lich#	#teln	ist	#ten	zu#	sei	der	#gen	und	ein	dich	#nem	in	ihm	am	und	und	#ler	bis
4a	Her#	Him#	wohl	soll	weiß	#en	fehlt’s	lau#	wi#	#rük#	un#	Kum#	gu#	trau#	wei#	wun#	Trost	sei#	treu	mind#	trägst	Eh#	uns#	in
4g#	#ze	#mel	er#	be#	und	Ge#	dir	#ter	#der#	#ke	#ver#	#mer	#te	#rig	#ser	#dern	ver#	#nem	ver#	#'sten	da#	#ren#	#'rer	den
=	=	=	=	=	=	=	=	=	=	=	=	=	=	=	=	=	=	=	=	=	=	=	=	=
2a	kränkt	lenkt.	#geh'n;	#steh'n.	sieht,	#blüt';	nicht;	Licht;	#steh'n,	geh’n:	#zagt!	jagt,	Nacht,	macht;	Fürst	wirst,	#ziehn,	Sinn	#bleibst,	glaubst;	#von,	#kron';	Not;	Tod
4r	%	%	%	%	%	%	%	%	%	%	%	%	%	%	%	%	%	%	%	%	%	%	%	%
=:|	=	=	=	=	=	=	=	=	=	=	=	=	=	=	=	=	=	=	=	=	=	=	=	=
4a	.	Der	.	Mit	.	und	.	dein	.	was	.	mit	.	bist	.	wenn	.	er	.	er	.	Gott	.	uns
=	=	=	=	=	=	=	=	=	=	=	=	=	=	=	=	=	=	=	=	=	=	=	=	=
4b	.	Wol#	.	Sor#	.	was	.	Werk	.	er	.	gro#	.	du	.	er,	.	dei#	.	wird	.	gibt	.	all#
4cc	.	#ken,	.	#gen	.	du	.	kann	.	ihm	.	#ßen	.	doch	.	wie	.	#ner	.	dein	.	dir	.	#zeit
4dd	.	Luft	.	und	.	dann	.	nie#	.	vor#	.	Gna#	.	nicht	.	ihm	.	sich	.	Her#	.	selbst	.	dei#
4b	.	und	.	mit	.	er#	.	#mand	.	#ge#	.	#den	.	Re#	.	ge#	.	be#	.	#ze	.	die	.	#ner
=	=	=	=	=	=	=	=	=	=	=	=	=	=	=	=	=	=	=	=	=	=	=	=	=
2cc	.	Win#	.	Grä#	.	#le#	.	hin#	.	#nom#	.	rük#	.	#gen#	.	#büh#	.	#ge#	.	lö#	.	Pal#	.	Pfle#
4a	.	#den	.	#men,	.	#sen,	.	#dern,	.	#men,	.	#ken;	.	#te,	.	#ret,	.	#ben	.	#sen	.	#men	.	#ge,
4a	.	gibt	.	und	.	das	.	dein	.	und	.	er#	.	der	.	mit	.	und	.	von	.	in	.	und
=	=	=	=	=	=	=	=	=	=	=	=	=	=	=	=	=	=	=	=	=	=	=	=	=
4g	.	We#	.	mit	.	treibst	.	Ar#	.	was	.	#war#	.	al#	.	wun#	.	sollt’st	.	der	.	dei#	.	Treu’
4f	.	#ge,	.	selbst#	.	du,	.	#beit	.	er	.	#te	.	#les	.	#der#	.	du	.	so	.	#ne	.	em#
4f	.	Lauf	.	#eig#	.	star#	.	darf	.	ha#	.	nur	.	füh#	.	#ba#	.	für	.	schwe#	.	rech#	.	#pfoh#
4e	.	und	.	#'ner	.	#ker	.	nicht	.	#ben	.	der	.	#ren	.	#rem	.	und	.	#ren	.	#te	.	#len
=	=	=	=	=	=	=	=	=	=	=	=	=	=	=	=	=	=	=	=	=	=	=	=	=
2f	.	Bahn,	.	Pein	.	Held,	.	ruh’n,	.	will,	.	Zeit,	.	soll,	.	Rat	.	für	.	Last,	.	Hand	.	sein,
4r	.	%	.	%	.	%	.	%	.	%	.	%	.	%	.	%	.	%	.	%	.	%	.	%
4a	.	der	.	lässt	.	und	.	wenn	.	das	.	so	.	Gott	.	das	.	in	.	die	.	und	.	so
=	=	=	=	=	=	=	=	=	=	=	=	=	=	=	=	=	=	=	=	=	=	=	=	=
4f	.	wird	.	Gott	.	bringst	.	du,	.	muss	.	wirst	.	sitzt	.	Werk	.	Angst	.	du	.	du	.	ge#
4g	.	auch	.	ihm	.	zum	.	was	.	doch	.	du	.	im	.	hi#	.	und	.	zu	.	singst	.	#hen
4a	.	We#	.	gar	.	Stand	.	dei#	.	end#	.	schon	.	Re#	.	#naus#	.	Nö#	.	kei#	.	Freu#	.	uns#
4g	.	#ge	.	nichts	.	und	.	#nen	.	#lich	.	er#	.	#gi#	.	#ge#	.	#ten	.	#nem	.	#den#	.	#'re
=	=	=	=	=	=	=	=	=	=	=	=	=	=	=	=	=	=	=	=	=	=	=	=	=
2f	.	fin#	.	neh#	.	We#	.	Kin#	.	kom#	.	#blik#	.	#men#	.	#füh#	.	schwe#	.	bö#	.	#psal#	.	We#
4e	.	#den,	.	#men,	.	#sen,	.	#dern	.	#men	.	#ken	.	#te,	.	#ret,	.	#ben,	.	#sen	.	#men	.	#ge
4f	.	da	.	es	.	was	.	er#	.	zu	.	die	.	und	.	das	.	als	.	bis#	.	dem,	.	ge#
=	=	=	=	=	=	=	=	=	=	=	=	=	=	=	=	=	=	=	=	=	=	=	=	=
4g	.	dein	.	muss	.	dei#	.	#sprieß#	.	sei#	.	Sonn'	.	füh#	.	dich	.	frag	.	#her	.	der	.	#wiss
4a	.	Fuß	.	er#	.	#nem	.	#lich	.	#nem	.	der	.	#ret	.	be#	.	er	.	ge#	.	dein	.	zum
4f	.	ge#	.	#be#	.	Rat	.	ist,	.	Zweck	.	schön#	.	al#	.	#küm#	.	nichts	.	#tra#	.	Leid	.	Him#
4e	.	#hen	.	#ten	.	ge#	.	willst	.	und	.	#sten	.	#les	.	#mert	.	nach	.	#gen	.	ge#	.	#mel
=	=	=	=	=	=	=	=	=	=	=	=	=	=	=	=	=	=	=	=	=	=	=	=	=
2.d	.	kann.	.	sein.	.	#fällt.	.	tun.	.	Ziel.	.	Freud'.	.	wohl.	.	hat.	.	dir.	.	hast.	.	#wandt.	.	ein.
==	==	==	==	==	==	==	==	==	==	==	==	==	==	==	==	==	==	==	==	==	==	==	==	==
*-	*-	*-	*-	*-	*-	*-	*-	*-	*-	*-	*-	*-	*-	*-	*-	*-	*-	*-	*-	*-	*-	*-	*-	*-
